www/assets/icons/package_outline.svg

<svg width="24" height="24" viewBox="0 0 24 24" xmlns="http://www.w3.org/2000/svg" fill='currentColor'><mask id="mask0_32484_498" style="mask-type:alpha" maskUnits="userSpaceOnUse" x="0" y="0" width="24" height="24"><rect width="24" height="24"/></mask><g mask="url(#mask0_32484_498)"><path d="M10 9.75L12 8.75L14 9.75V5H10V9.75ZM7 17V15H12V17H7ZM5 21C4.45 21 3.97917 20.8042 3.5875 20.4125C3.19583 20.0208 3 19.55 3 19V5C3 4.45 3.19583 3.97917 3.5875 3.5875C3.97917 3.19583 4.45 3 5 3H19C19.55 3 20.0208 3.19583 20.4125 3.5875C20.8042 3.97917 21 4.45 21 5V19C21 19.55 20.8042 20.0208 20.4125 20.4125C20.0208 20.8042 19.55 21 19 21H5ZM5 19H19V5H16V13L12 11L8 13V5H5V19Z"/></g></svg>

<svg xmlns="http://www.w3.org/2000/svg" width="24" height="24" viewBox="0 0 24 24" fill='currentColor'><mask id="a" width="24" height="24" x="0" y="0" maskUnits="userSpaceOnUse" style="mask-type:alpha"><path d="M0 0h24v24H0z"/></mask><g mask="url(#a)"><path d="m10 9.75 2-1 2 1V5h-4zM7 17v-2h5v2zm-2 4q-.824 0-1.412-.587A1.93 1.93 0 0 1 3 19V5q0-.824.587-1.412A1.93 1.93 0 0 1 5 3h14q.824 0 1.413.587Q21 4.176 21 5v14q0 .824-.587 1.413A1.93 1.93 0 0 1 19 21zm0-2h14V5h-3v8l-4-2-4 2V5H5z"/></g></svg>
